svg/girl_0105y_negative.svg

<svg width="48" height="48" viewBox="0 0 48 48" fill="none" xmlns="http://www.w3.org/2000/svg">
<path fill-rule="evenodd" clip-rule="evenodd" d="M0 0V47.9994H47.9994V0H0ZM12.6368 3.99995C13.2408 4.01245 13.9018 4.10635 14.6148 4.27335C17.1678 4.93904 18.7268 8.0036 19.8338 11.0509C19.9807 10.9679 20.1257 10.8849 20.2767 10.8089C20.2747 10.8079 20.2727 10.8069 20.2707 10.8069C21.8507 9.91418 23.3697 9.75768 25.2827 9.60538C25.2877 9.60538 25.2977 9.60148 25.3027 9.60148C25.3407 9.60148 25.3777 9.60878 25.4157 9.60928C25.6937 9.61338 25.9707 9.62578 26.2477 9.65218C32.0416 10.1429 36.4955 14.9878 36.4995 20.803C36.4995 26.987 31.4866 31.9999 25.3027 31.9999C19.1188 31.9999 14.1048 26.987 14.1048 20.803C14.1098 17.0891 15.9528 13.6571 18.9608 11.5902C18.0428 8.74569 13.8858 4.53994 11.8669 8.3147C9.20928 12.1701 11.8319 23.8745 7.9237 23.6025C4.36815 23.5985 2.97726 19.6956 4.76944 17.1486C2.78226 20.3725 9.52938 25.9435 8.55259 18.6706C6.88761 7.8237 8.40689 3.91475 12.6368 4.00275V4.00075V3.99995ZM26.7067 14.4998C26.3087 14.4648 25.8827 15.2098 25.3907 17.3028C22.1967 17.7048 20.8007 19.3698 15.8958 17.0178C15.4098 18.2198 15.1588 19.5048 15.1558 20.8027C15.1558 26.4067 19.6978 30.9506 25.3027 30.9506C30.9076 30.9516 35.4516 26.4077 35.4506 20.8027C35.4466 20.1067 35.3716 19.4128 35.2266 18.7318C32.9906 18.8398 30.2976 19.1878 28.1886 17.3028C27.6837 15.8808 27.2187 14.5448 26.7067 14.4998ZM21.5407 19.5348C22.1207 19.5348 22.5907 20.0037 22.5917 20.5837C22.5917 21.1647 22.1217 21.6347 21.5407 21.6347C20.9607 21.6337 20.4917 21.1637 20.4917 20.5837C20.4927 20.0047 20.9617 19.5358 21.5407 19.5348ZM29.1946 19.5348C29.7746 19.5348 30.2456 20.0037 30.2456 20.5837C30.2466 21.1647 29.7756 21.6347 29.1946 21.6347C28.6156 21.6337 28.1456 21.1637 28.1456 20.5837C28.1466 20.0047 28.6156 19.5358 29.1946 19.5348ZM21.9687 25.1817C22.1417 25.1657 22.3317 25.3037 22.3787 25.6427C22.5187 26.7437 23.8117 27.5887 25.3607 27.5897C26.9617 27.5567 28.2426 26.7997 29.0616 25.6427C28.9196 27.0277 27.3057 28.0986 25.3607 28.0996C23.4177 28.0976 21.8037 27.0267 21.6617 25.6427C21.6387 25.3667 21.7957 25.1967 21.9687 25.1817ZM3.99995 33.9996H43.9995V43.9995H3.99995V33.9996ZM7.703 35.3456C6.92791 35.3456 6.33342 35.6026 5.91983 36.1165C5.50953 36.6315 5.30463 37.3855 5.30463 38.3785V39.6885C5.31443 40.6435 5.52513 41.3745 5.93543 41.8865C6.34582 42.3975 6.93771 42.6535 7.7128 42.6535C8.49769 42.6535 9.09279 42.3935 9.49988 41.8725C9.90698 41.3515 10.1109 40.5985 10.1109 39.6145V38.3065C10.1019 37.3515 9.89068 36.6205 9.48038 36.1125C9.06999 35.6016 8.47809 35.3456 7.703 35.3456ZM23.0818 35.3456C22.3068 35.3456 21.7118 35.6026 21.2988 36.1165C20.8878 36.6315 20.6838 37.3855 20.6838 38.3785V39.6885C20.6928 40.6435 20.9018 41.3745 21.3118 41.8865C21.7228 42.3975 22.3168 42.6535 23.0918 42.6535C23.8768 42.6535 24.4718 42.3935 24.8788 41.8725C25.2858 41.3515 25.4898 40.5985 25.4898 39.6145V38.3065C25.4798 37.3515 25.2698 36.6205 24.8588 36.1125C24.4488 35.6016 23.8568 35.3456 23.0818 35.3456ZM14.3479 35.4336L11.4 36.4875V37.6365L13.0859 37.1145V42.5565H14.4979V35.4336H14.3479ZM27.0678 35.4446L26.6558 39.0605L27.7808 39.3395L27.9178 39.2125C28.1257 39.0365 28.3967 38.9485 28.7317 38.9485C29.0967 38.9485 29.3787 39.0555 29.5777 39.2705C29.7767 39.4855 29.8767 39.7945 29.8767 40.1985C29.8767 40.6185 29.7897 40.9435 29.6167 41.1755C29.4447 41.4035 29.1977 41.5175 28.8787 41.5175C28.5917 41.5175 28.3607 41.4355 28.1817 41.2725C28.0057 41.1065 27.9017 40.8755 27.8728 40.5795H26.4768C26.4898 40.9835 26.6008 41.3435 26.8118 41.6595C27.0268 41.9755 27.3188 42.2205 27.6878 42.3955C28.0557 42.5685 28.4547 42.6555 28.8847 42.6555C29.3767 42.6555 29.8027 42.5555 30.1637 42.3565C30.5257 42.1555 30.8017 41.8745 30.9937 41.5135C31.1897 41.1485 31.2887 40.7365 31.2887 40.2765C31.2887 39.5215 31.0947 38.9335 30.7107 38.5135C30.3267 38.0935 29.7967 37.8825 29.1187 37.8825C28.7407 37.8825 28.3837 37.9725 28.0487 38.1515L28.2247 36.6225H31.0547V35.4446H27.0678ZM31.7187 35.4446L34.0527 39.9785V42.5585H35.5427V39.9785L37.8786 35.4446H36.2746L34.7947 38.6495L33.3257 35.4446H31.7187ZM7.703 36.4895C8.045 36.4895 8.2954 36.6255 8.45499 36.8955C8.61779 37.1635 8.69909 37.5915 8.69909 38.1815V39.8705C8.69259 40.4275 8.61389 40.8425 8.46079 41.1125C8.3078 41.3835 8.058 41.5175 7.7128 41.5175C7.36431 41.5175 7.11061 41.3775 6.95111 41.0975C6.79481 40.8135 6.71672 40.3815 6.71672 39.8025V38.0735C6.72652 37.5295 6.80841 37.1305 6.96471 36.8765C7.12431 36.6195 7.37081 36.4895 7.703 36.4895ZM23.0818 36.4895C23.4238 36.4895 23.6738 36.6255 23.8338 36.8955C23.9968 37.1635 24.0778 37.5915 24.0778 38.1815V39.8705C24.0718 40.4275 23.9908 40.8425 23.8378 41.1125C23.6848 41.3835 23.4368 41.5175 23.0918 41.5175C22.7428 41.5175 22.4878 41.3775 22.3278 41.0975C22.1718 40.8135 22.0938 40.3815 22.0938 39.8025V38.0735C22.1038 37.5295 22.1868 37.1305 22.3438 36.8765C22.5028 36.6195 22.7498 36.4895 23.0818 36.4895ZM40.1796 37.1755C39.5506 37.1755 39.0406 37.3315 38.6496 37.6475C38.2626 37.9605 38.0676 38.3525 38.0676 38.8215C38.0676 39.6265 38.6976 40.1595 39.9546 40.4235C40.3326 40.5015 40.6056 40.5895 40.7746 40.6905C40.9476 40.7885 41.0326 40.9245 41.0326 41.0975C41.0326 41.2635 40.9636 41.3995 40.8236 41.5035C40.6866 41.6045 40.4826 41.6535 40.2126 41.6535C39.9226 41.6535 39.6916 41.5875 39.5196 41.4545C39.3466 41.3215 39.2526 41.1275 39.2396 40.8765H37.9016C37.9016 41.1955 37.9996 41.4945 38.1946 41.7705C38.3906 42.0445 38.6596 42.2615 39.0016 42.4215C39.3466 42.5775 39.7406 42.6555 40.1836 42.6555C40.8376 42.6555 41.3736 42.5065 41.7866 42.2105C42.2006 41.9105 42.4056 41.5205 42.4056 41.0385C42.4056 40.3645 42.0326 39.8905 41.2866 39.6165C41.0456 39.5285 40.7496 39.4505 40.3976 39.3825C40.0466 39.3105 39.7956 39.2285 39.6456 39.1345C39.4996 39.0365 39.4256 38.9075 39.4256 38.7515C39.4256 38.5855 39.4926 38.4485 39.6226 38.3415C39.7526 38.2335 39.9356 38.1815 40.1736 38.1815C40.4506 38.1815 40.6546 38.2465 40.7846 38.3805C40.9146 38.5105 40.9796 38.6785 40.9796 38.8805H42.3926C42.3926 38.3755 42.1906 37.9635 41.7866 37.6475C41.3866 37.3325 40.8506 37.1755 40.1796 37.1755ZM16.8669 38.9425V40.0815H19.6169V38.9425H16.8669Z" fill="#333333"/>
</svg>

<?xml version="1.0" encoding="UTF-8" standalone="no"?>
<!-- Created with Inkscape (http://www.inkscape.org/) -->
<svg id="svg8" xmlns:rdf="http://www.w3.org/1999/02/22-rdf-syntax-ns#" xmlns="http://www.w3.org/2000/svg" xmlns:osb="http://www.openswatchbook.org/uri/2009/osb" height="48" width="48" version="1.1" xmlns:cc="http://creativecommons.org/ns#" viewBox="0 0 12.7 12.7" xmlns:dc="http://purl.org/dc/elements/1.1/">
 <title id="title4753">UIO-icon</title>
 <metadata id="metadata5">
  <rdf:RDF>
   <cc:Work rdf:about="">
    <dc:format>image/svg+xml</dc:format>
    <dc:type rdf:resource="http://purl.org/dc/dcmitype/StillImage"/>
    <dc:title>UIO-icon</dc:title>
    <dc:creator>
     <cc:Agent>
      <dc:title>Joaquín Urbano</dc:title>
     </cc:Agent>
    </dc:creator>
    <dc:rights>
     <cc:Agent>
      <dc:title>GPL</dc:title>
     </cc:Agent>
    </dc:rights>
   </cc:Work>
  </rdf:RDF>
 </metadata>
 <g id="layer1" transform="translate(0,-284.3)">
  <path id="rect38946" d="m0 0v48h48v-48h-48zm12.637 4c0.604 0.0125 1.265 0.1064 1.978 0.2734 2.553 0.6657 4.112 3.7303 5.219 6.7776 0.147-0.083 0.292-0.166 0.443-0.242-0.002-0.001-0.004-0.002-0.006-0.002 1.58-0.8927 3.099-1.0492 5.012-1.2015 0.005 0 0.015-0.0039 0.02-0.0039 0.038 0 0.075 0.0073 0.113 0.0078 0.278 0.0041 0.555 0.0165 0.832 0.0429 5.794 0.4907 10.248 5.3357 10.252 11.151 0 6.184-5.013 11.197-11.197 11.197s-11.198-5.013-11.198-11.197c0.005-3.714 1.848-7.146 4.856-9.213-0.918-2.8445-5.075-7.0503-7.094-3.2755-2.6576 3.8555-0.035 15.56-3.9432 15.288-3.5556-0.004-4.9465-3.907-3.1543-6.454-1.9872 3.224 4.76 8.795 3.7832 1.522-1.665-10.847-0.1457-14.756 4.0843-14.668v-0.002zm14.07 10.5c-0.398-0.035-0.824 0.71-1.316 2.803-3.194 0.402-4.59 2.067-9.495-0.285-0.486 1.202-0.737 2.487-0.74 3.785 0 5.604 4.542 10.148 10.147 10.148 5.605 0.001 10.149-4.543 10.148-10.148-0.004-0.696-0.079-1.39-0.224-2.071-2.236 0.108-4.929 0.456-7.038-1.429-0.505-1.422-0.97-2.758-1.482-2.803zm-5.166 5.035c0.58 0 1.05 0.469 1.051 1.049 0 0.581-0.47 1.051-1.051 1.051-0.58-0.001-1.049-0.471-1.049-1.051 0.001-0.579 0.47-1.048 1.049-1.049zm7.654 0c0.58 0 1.051 0.469 1.051 1.049 0.001 0.581-0.47 1.051-1.051 1.051-0.579-0.001-1.049-0.471-1.049-1.051 0.001-0.579 0.47-1.048 1.049-1.049zm-7.226 5.647c0.173-0.016 0.363 0.122 0.41 0.461 0.14 1.101 1.433 1.946 2.982 1.947 1.601-0.033 2.882-0.79 3.701-1.947-0.142 1.385-1.756 2.456-3.701 2.457-1.943-0.002-3.557-1.073-3.699-2.457-0.023-0.276 0.134-0.446 0.307-0.461zm-17.969 8.818h40v10h-40v-10zm3.7031 1.346c-0.7751 0-1.3696 0.257-1.7832 0.771-0.4103 0.515-0.6152 1.269-0.6152 2.262v1.31c0.0098 0.955 0.2205 1.686 0.6308 2.198 0.4104 0.511 1.0023 0.767 1.7774 0.767 0.7849 0 1.38-0.26 1.7871-0.781s0.611-1.274 0.611-2.258v-1.308c-0.009-0.955-0.2202-1.686-0.6305-2.194-0.4104-0.511-1.0023-0.767-1.7774-0.767zm15.379 0c-0.775 0-1.37 0.257-1.783 0.771-0.411 0.515-0.615 1.269-0.615 2.262v1.31c0.009 0.955 0.218 1.686 0.628 2.198 0.411 0.511 1.005 0.767 1.78 0.767 0.785 0 1.38-0.26 1.787-0.781s0.611-1.274 0.611-2.258v-1.308c-0.01-0.955-0.22-1.686-0.631-2.194-0.41-0.511-1.002-0.767-1.777-0.767zm-8.734 0.088l-2.948 1.054v1.149l1.686-0.522v5.442h1.412v-7.123h-0.15zm12.72 0.011l-0.412 3.616 1.125 0.279 0.137-0.127c0.208-0.176 0.479-0.264 0.814-0.264 0.365 0 0.647 0.107 0.846 0.322s0.299 0.524 0.299 0.928c0 0.42-0.087 0.745-0.26 0.977-0.172 0.228-0.419 0.342-0.738 0.342-0.287 0-0.518-0.082-0.697-0.245-0.176-0.166-0.28-0.397-0.309-0.693h-1.396c0.013 0.404 0.124 0.764 0.335 1.08 0.215 0.316 0.507 0.561 0.876 0.736 0.368 0.173 0.767 0.26 1.197 0.26 0.492 0 0.918-0.1 1.279-0.299 0.362-0.201 0.638-0.482 0.83-0.843 0.196-0.365 0.295-0.777 0.295-1.237 0-0.755-0.194-1.343-0.578-1.763s-0.914-0.631-1.592-0.631c-0.378 0-0.735 0.09-1.07 0.269l0.176-1.529h2.83v-1.178h-3.987zm4.651 0l2.334 4.534v2.58h1.49v-2.58l2.336-4.534h-1.604l-1.48 3.205-1.469-3.205h-1.607zm-24.016 1.045c0.342 0 0.5924 0.136 0.752 0.406 0.1628 0.268 0.2441 0.696 0.2441 1.286v1.689c-0.0065 0.557-0.0852 0.972-0.2383 1.242-0.153 0.271-0.4028 0.405-0.748 0.405-0.3485 0-0.6022-0.14-0.7617-0.42-0.1563-0.284-0.2344-0.716-0.2344-1.295v-1.729c0.0098-0.544 0.0917-0.943 0.248-1.197 0.1596-0.257 0.4061-0.387 0.7383-0.387zm15.379 0c0.342 0 0.592 0.136 0.752 0.406 0.163 0.268 0.244 0.696 0.244 1.286v1.689c-0.006 0.557-0.087 0.972-0.24 1.242-0.153 0.271-0.401 0.405-0.746 0.405-0.349 0-0.604-0.14-0.764-0.42-0.156-0.284-0.234-0.716-0.234-1.295v-1.729c0.01-0.544 0.093-0.943 0.25-1.197 0.159-0.257 0.406-0.387 0.738-0.387zm17.098 0.686c-0.629 0-1.139 0.156-1.53 0.472-0.387 0.313-0.582 0.705-0.582 1.174 0 0.805 0.63 1.338 1.887 1.602 0.378 0.078 0.651 0.166 0.82 0.267 0.173 0.098 0.258 0.234 0.258 0.407 0 0.166-0.069 0.302-0.209 0.406-0.137 0.101-0.341 0.15-0.611 0.15-0.29 0-0.521-0.066-0.693-0.199-0.173-0.133-0.267-0.327-0.28-0.578h-1.338c0 0.319 0.098 0.618 0.293 0.894 0.196 0.274 0.465 0.491 0.807 0.651 0.345 0.156 0.739 0.234 1.182 0.234 0.654 0 1.19-0.149 1.603-0.445 0.414-0.3 0.619-0.69 0.619-1.172 0-0.674-0.373-1.148-1.119-1.422-0.241-0.088-0.537-0.166-0.889-0.234-0.351-0.072-0.602-0.154-0.752-0.248-0.146-0.098-0.22-0.227-0.22-0.383 0-0.166 0.067-0.303 0.197-0.41 0.13-0.108 0.313-0.16 0.551-0.16 0.277 0 0.481 0.065 0.611 0.199 0.13 0.13 0.195 0.298 0.195 0.5h1.413c0-0.505-0.202-0.917-0.606-1.233-0.4-0.315-0.936-0.472-1.607-0.472zm-23.313 1.767v1.139h2.75v-1.139h-2.75z" fill-rule="evenodd" transform="matrix(.26458 0 0 .26458 0 284.3)" fill="#333"/>
 </g>
</svg>
